src/svg-light/center_ptr.svg

<svg xmlns="http://www.w3.org/2000/svg" id="svg5327" width="32" height="32" version="1.1">
 <defs id="defs5329">
  <filter id="filter856" style="color-interpolation-filters:sRGB" width="1.165" height="1.068" x="-.08" y="-.03">
   <feGaussianBlur id="feGaussianBlur858" stdDeviation=".241"/>
  </filter>
  <filter id="filter888" style="color-interpolation-filters:sRGB" width="1.09" height="1.102" x="-.04" y="-.05">
   <feGaussianBlur id="feGaussianBlur890" stdDeviation=".32"/>
  </filter>
 </defs>
 <g id="layer1" transform="translate(0,-1020.3622)">
  <path id="path921" style="color:#000000;font-style:normal;font-variant:normal;font-weight:normal;font-stretch:normal;font-size:medium;line-height:normal;font-family:sans-serif;font-variant-ligatures:normal;font-variant-position:normal;font-variant-caps:normal;font-variant-numeric:normal;font-variant-alternates:normal;font-feature-settings:normal;text-indent:0;text-align:start;text-decoration:none;text-decoration-line:none;text-decoration-style:solid;text-decoration-color:#000000;letter-spacing:normal;word-spacing:normal;text-transform:none;writing-mode:lr-tb;direction:ltr;text-orientation:mixed;dominant-baseline:auto;baseline-shift:baseline;text-anchor:start;white-space:normal;shape-padding:0;clip-rule:nonzero;display:inline;overflow:visible;visibility:visible;opacity:0.3;isolation:auto;mix-blend-mode:normal;color-interpolation:sRGB;color-interpolation-filters:linearRGB;solid-color:#000000;solid-opacity:1;vector-effect:none;fill:#000000;fill-opacity:1;fill-rule:nonzero;stroke:none;stroke-width:7;stroke-linecap:round;stroke-linejoin:miter;stroke-miterlimit:4;stroke-dasharray:none;stroke-dashoffset:0;stroke-opacity:1;color-rendering:auto;image-rendering:auto;shape-rendering:auto;text-rendering:auto;enable-background:accumulate;filter:url(#filter856)" d="M 16.447266,1030.8126 A 3.50035,3.50035 0 0 0 13,1034.3614 v 10 a 3.50035,3.50035 0 1 0 7,0 v -10 a 3.50035,3.50035 0 0 0 -3.552734,-3.5488 z"/>
  <path id="path4" style="fill:none;stroke:#e4e4e4;stroke-width:7;stroke-linecap:round;stroke-opacity:1" d="m 16.5,1043.8622 v -10"/>
  <path id="path945" style="opacity:0.3;fill:#000000;stroke-width:0.49909884;filter:url(#filter888)" d="m 17.636638,1026.1409 c -0.954581,-0.5657 -2.208736,-0.2434 -2.777884,0.7138 l -6.5800235,11.0773 c -0.7802586,1.3129 0.1694293,2.9404 1.7094033,2.9295 l 12.9921852,7e-4 c 1.540974,-0.01 2.516793,-1.7483 1.75552,-3.0506 l -6.412111,-10.9831 c -0.165798,-0.2829 -0.402054,-0.5195 -0.68709,-0.6879 z"/>
  <path id="path860" style="color:#000000;font-style:normal;font-variant:normal;font-weight:normal;font-stretch:normal;font-size:medium;line-height:normal;font-family:sans-serif;font-variant-ligatures:normal;font-variant-position:normal;font-variant-caps:normal;font-variant-numeric:normal;font-variant-alternates:normal;font-feature-settings:normal;text-indent:0;text-align:start;text-decoration:none;text-decoration-line:none;text-decoration-style:solid;text-decoration-color:#000000;letter-spacing:normal;word-spacing:normal;text-transform:none;writing-mode:lr-tb;direction:ltr;text-orientation:mixed;dominant-baseline:auto;baseline-shift:baseline;text-anchor:start;white-space:normal;shape-padding:0;clip-rule:nonzero;display:inline;overflow:visible;visibility:visible;opacity:0.25;isolation:auto;mix-blend-mode:normal;color-interpolation:sRGB;color-interpolation-filters:linearRGB;solid-color:#000000;solid-opacity:1;vector-effect:none;fill:#000000;fill-opacity:1;fill-rule:nonzero;stroke:none;stroke-width:7;stroke-linecap:round;stroke-linejoin:miter;stroke-miterlimit:4;stroke-dasharray:none;stroke-dashoffset:0;stroke-opacity:1;color-rendering:auto;image-rendering:auto;shape-rendering:auto;text-rendering:auto;enable-background:accumulate" d="M 16.447266,1030.3125 A 3.50035,3.50035 0 0 0 13,1033.8613 v 10 a 3.50035,3.50035 0 1 0 7,0 v -10 a 3.50035,3.50035 0 0 0 -3.552734,-3.5488 z"/>
  <path id="path892" style="color:#000000;font-style:normal;font-variant:normal;font-weight:normal;font-stretch:normal;font-size:medium;line-height:normal;font-family:sans-serif;font-variant-ligatures:normal;font-variant-position:normal;font-variant-caps:normal;font-variant-numeric:normal;font-variant-alternates:normal;font-feature-settings:normal;text-indent:0;text-align:start;text-decoration:none;text-decoration-line:none;text-decoration-style:solid;text-decoration-color:#000000;letter-spacing:normal;word-spacing:normal;text-transform:none;writing-mode:lr-tb;direction:ltr;text-orientation:mixed;dominant-baseline:auto;baseline-shift:baseline;text-anchor:start;white-space:normal;shape-padding:0;clip-rule:nonzero;display:inline;overflow:visible;visibility:visible;opacity:0.05;isolation:auto;mix-blend-mode:normal;color-interpolation:sRGB;color-interpolation-filters:linearRGB;solid-color:#000000;solid-opacity:1;vector-effect:none;fill:#010101;fill-opacity:1;fill-rule:nonzero;stroke:none;stroke-width:7;stroke-linecap:round;stroke-linejoin:miter;stroke-miterlimit:4;stroke-dasharray:none;stroke-dashoffset:0;stroke-opacity:1;color-rendering:auto;image-rendering:auto;shape-rendering:auto;text-rendering:auto;enable-background:accumulate" transform="translate(0,1020.3622)" d="M 16.447266 9.9511719 A 3.50035 3.50035 0 0 0 13 13.5 L 13 23.5 A 3.50035 3.50035 0 1 0 20 23.5 L 20 13.5 A 3.50035 3.50035 0 0 0 16.447266 9.9511719 z M 16.462891 10.949219 L 16.462891 10.951172 C 17.885012 10.930172 19.019848 12.064128 19 13.486328 A 1.0001 1.0001 0 0 0 19 13.5 L 19 23.5 A 1.0001 1.0001 0 0 0 19 23.513672 C 19.01318 24.445872 18.70668 25.012869 18.255859 25.417969 C 17.805039 25.823069 17.160115 26.050781 16.5 26.050781 C 15.839885 26.050781 15.194961 25.823069 14.744141 25.417969 C 14.29332 25.012169 13.986817 24.445872 14 23.513672 A 1.0001 1.0001 0 0 0 14 23.498047 L 14 13.498047 A 1.0001 1.0001 0 0 0 14 13.484375 C 13.98058 12.092875 15.071427 10.970219 16.462891 10.949219 z"/>
  <path id="path8" style="fill:#e4e4e4;stroke-width:0.49909884" d="m 17.636638,1025.6409 c -0.954581,-0.5657 -2.208736,-0.2434 -2.777884,0.7138 l -6.5800235,11.0773 c -0.7802586,1.3129 0.1694293,2.9404 1.7094033,2.9295 l 12.9921852,7e-4 c 1.540974,-0.01 2.516793,-1.7483 1.75552,-3.0506 l -6.412111,-10.9831 c -0.165798,-0.2829 -0.402054,-0.5195 -0.68709,-0.6879 z"/>
  <path id="path894" style="fill:#010101;stroke-width:0.49909884;opacity:0.05;fill-opacity:1" transform="translate(0,1020.3622)" d="M 16.488281 5.0039062 C 15.837778 5.0443486 15.215093 5.3939375 14.859375 5.9921875 L 8.2792969 17.070312 C 7.4990383 18.383212 8.4483072 20.0109 9.9882812 20 L 22.980469 20 C 24.521443 19.99 25.497601 18.251519 24.736328 16.949219 L 18.324219 5.9667969 C 18.158421 5.6838969 17.921755 5.4476969 17.636719 5.2792969 C 17.278751 5.0671594 16.878583 4.9796408 16.488281 5.0039062 z M 16.744141 6.0078125 C 16.875962 6.025125 17.006756 6.069375 17.126953 6.140625 A 1.0001 1.0001 0 0 0 17.128906 6.140625 A 1.0001 1.0001 0 0 0 17.130859 6.140625 C 17.269939 6.223625 17.382162 6.3363031 17.460938 6.4707031 L 23.873047 17.453125 C 24.250772 18.099325 23.766335 18.992947 22.974609 18.998047 L 9.9882812 18.998047 A 1.0001 1.0001 0 0 0 9.9804688 18.998047 C 9.1479089 19.008047 8.7259039 18.274578 9.1386719 17.580078 L 15.71875 6.5019531 C 15.863615 6.2583531 16.095745 6.09715 16.351562 6.03125 L 16.351562 6.0332031 C 16.479472 6.0002031 16.61232 5.9905 16.744141 6.0078125 z"/>
 </g>
</svg>

<svg xmlns="http://www.w3.org/2000/svg" id="svg5327" width="32" height="32" version="1.1">
 <defs id="defs5329">
  <filter id="filter856" style="color-interpolation-filters:sRGB" width="1.165" height="1.068" x="-.08" y="-.03">
   <feGaussianBlur id="feGaussianBlur858" stdDeviation=".241"/>
  </filter>
  <filter id="filter888" style="color-interpolation-filters:sRGB" width="1.09" height="1.102" x="-.04" y="-.05">
   <feGaussianBlur id="feGaussianBlur890" stdDeviation=".32"/>
  </filter>
 </defs>
 <path id="path921" style="color:#000000;font-style:normal;font-variant:normal;font-weight:normal;font-stretch:normal;font-size:medium;line-height:normal;font-family:sans-serif;font-variant-ligatures:normal;font-variant-position:normal;font-variant-caps:normal;font-variant-numeric:normal;font-variant-alternates:normal;font-feature-settings:normal;text-indent:0;text-align:start;text-decoration:none;text-decoration-line:none;text-decoration-style:solid;text-decoration-color:#000000;letter-spacing:normal;word-spacing:normal;text-transform:none;writing-mode:lr-tb;direction:ltr;text-orientation:mixed;dominant-baseline:auto;baseline-shift:baseline;text-anchor:start;white-space:normal;shape-padding:0;clip-rule:nonzero;display:inline;overflow:visible;visibility:visible;opacity:0.3;isolation:auto;mix-blend-mode:normal;color-interpolation:sRGB;color-interpolation-filters:linearRGB;solid-color:#000000;solid-opacity:1;vector-effect:none;fill:#000000;fill-opacity:1;fill-rule:nonzero;stroke:none;stroke-width:7;stroke-linecap:round;stroke-linejoin:miter;stroke-miterlimit:4;stroke-dasharray:none;stroke-dashoffset:0;stroke-opacity:1;filter:url(#filter856);color-rendering:auto;image-rendering:auto;shape-rendering:auto;text-rendering:auto;enable-background:accumulate" d="M 16.447266,10.4504 A 3.50035,3.50035 0 0 0 13,13.9992 v 10 a 3.50035,3.50035 0 1 0 7,0 v -10 a 3.50035,3.50035 0 0 0 -3.552734,-3.5488 z"/>
 <path id="path4" style="fill:none;stroke:#e4e4e4;stroke-width:7;stroke-linecap:round;stroke-opacity:1" d="m 16.5,23.5 v -10"/>
 <path id="path945" style="opacity:0.3;fill:#000000;stroke-width:0.49909884;filter:url(#filter888)" d="M 17.636638,5.7787 C 16.682057,5.213 15.427902,5.5353 14.858754,6.4925 L 8.2787305,17.5698 c -0.7802586,1.3129 0.1694293,2.9404 1.7094033,2.9295 L 22.980319,20.5 c 1.540974,-0.01 2.516793,-1.7483 1.75552,-3.0506 L 18.323728,6.4663 C 18.15793,6.1834 17.921674,5.9468 17.636638,5.7784 Z"/>
 <path id="path860" style="color:#000000;font-style:normal;font-variant:normal;font-weight:normal;font-stretch:normal;font-size:medium;line-height:normal;font-family:sans-serif;font-variant-ligatures:normal;font-variant-position:normal;font-variant-caps:normal;font-variant-numeric:normal;font-variant-alternates:normal;font-feature-settings:normal;text-indent:0;text-align:start;text-decoration:none;text-decoration-line:none;text-decoration-style:solid;text-decoration-color:#000000;letter-spacing:normal;word-spacing:normal;text-transform:none;writing-mode:lr-tb;direction:ltr;text-orientation:mixed;dominant-baseline:auto;baseline-shift:baseline;text-anchor:start;white-space:normal;shape-padding:0;clip-rule:nonzero;display:inline;overflow:visible;visibility:visible;opacity:0.25;isolation:auto;mix-blend-mode:normal;color-interpolation:sRGB;color-interpolation-filters:linearRGB;solid-color:#000000;solid-opacity:1;vector-effect:none;fill:#000000;fill-opacity:1;fill-rule:nonzero;stroke:none;stroke-width:7;stroke-linecap:round;stroke-linejoin:miter;stroke-miterlimit:4;stroke-dasharray:none;stroke-dashoffset:0;stroke-opacity:1;color-rendering:auto;image-rendering:auto;shape-rendering:auto;text-rendering:auto;enable-background:accumulate" d="M 16.447266,9.9503 A 3.50035,3.50035 0 0 0 13,13.4991 v 10 a 3.50035,3.50035 0 1 0 7,0 v -10 A 3.50035,3.50035 0 0 0 16.447266,9.9503 Z"/>
 <path id="path892" style="color:#000000;font-style:normal;font-variant:normal;font-weight:normal;font-stretch:normal;font-size:medium;line-height:normal;font-family:sans-serif;font-variant-ligatures:normal;font-variant-position:normal;font-variant-caps:normal;font-variant-numeric:normal;font-variant-alternates:normal;font-feature-settings:normal;text-indent:0;text-align:start;text-decoration:none;text-decoration-line:none;text-decoration-style:solid;text-decoration-color:#000000;letter-spacing:normal;word-spacing:normal;text-transform:none;writing-mode:lr-tb;direction:ltr;text-orientation:mixed;dominant-baseline:auto;baseline-shift:baseline;text-anchor:start;white-space:normal;shape-padding:0;clip-rule:nonzero;display:inline;overflow:visible;visibility:visible;opacity:0.05;isolation:auto;mix-blend-mode:normal;color-interpolation:sRGB;color-interpolation-filters:linearRGB;solid-color:#000000;solid-opacity:1;vector-effect:none;fill:#010101;fill-opacity:1;fill-rule:nonzero;stroke:none;stroke-width:7;stroke-linecap:round;stroke-linejoin:miter;stroke-miterlimit:4;stroke-dasharray:none;stroke-dashoffset:0;stroke-opacity:1;color-rendering:auto;image-rendering:auto;shape-rendering:auto;text-rendering:auto;enable-background:accumulate" d="M 16.447266,9.9511719 A 3.50035,3.50035 0 0 0 13,13.5 v 10 a 3.50035,3.50035 0 1 0 7,0 v -10 A 3.50035,3.50035 0 0 0 16.447266,9.9511719 Z m 0.01563,0.9980471 v 0.002 c 1.422121,-0.021 2.556957,1.112956 2.537109,2.535156 A 1.0001,1.0001 0 0 0 19,13.5 v 10 a 1.0001,1.0001 0 0 0 0,0.01367 c 0.01318,0.9322 -0.29332,1.499197 -0.744141,1.904297 -0.45082,0.4051 -1.095744,0.632812 -1.755859,0.632812 -0.660115,0 -1.305039,-0.227712 -1.755859,-0.632812 C 14.29332,25.012169 13.986817,24.445872 14,23.513672 a 1.0001,1.0001 0 0 0 0,-0.01563 v -10 a 1.0001,1.0001 0 0 0 0,-0.01367 c -0.01942,-1.3915 1.071427,-2.514156 2.462891,-2.535156 z"/>
 <path id="path835" style="fill:none;stroke-width:1;stroke:#000000;stroke-opacity:1;stroke-miterlimit:4;stroke-dasharray:none;stroke-linejoin:round;stroke-linecap:round;opacity:0.25" d="M 17.636638,5.2787 C 16.682057,4.713 15.427902,5.0353 14.858754,5.9925 L 8.2787305,17.0698 c -0.7802586,1.3129 0.1694293,2.9404 1.7094033,2.9295 L 22.980319,20 c 1.540974,-0.01 2.516793,-1.7483 1.75552,-3.0506 L 18.323728,5.9663 C 18.15793,5.6834 17.921674,5.4468 17.636638,5.2784 Z"/>
 <path id="path8" style="fill:#e4e4e4;stroke-width:0.49909884" d="M 17.636638,5.2787 C 16.682057,4.713 15.427902,5.0353 14.858754,5.9925 L 8.2787305,17.0698 c -0.7802586,1.3129 0.1694293,2.9404 1.7094033,2.9295 L 22.980319,20 c 1.540974,-0.01 2.516793,-1.7483 1.75552,-3.0506 L 18.323728,5.9663 C 18.15793,5.6834 17.921674,5.4468 17.636638,5.2784 Z"/>
</svg>
